src/assets/img/icons/duotone-icons/Media/Shuffle.svg

<?xml version="1.0" encoding="UTF-8"?>
<svg width="24px" height="24px" viewBox="0 0 24 24" version="1.1" xmlns="http://www.w3.org/2000/svg" xmlns:xlink="http://www.w3.org/1999/xlink">
    <!-- Generator: Sketch 52.2 (67145) - http://www.bohemiancoding.com/sketch -->
    <title>Stockholm-icons / Media / Shuffle</title>
    <desc>Created with Sketch.</desc>
    <g id="Stockholm-icons-/-Media-/-Shuffle" stroke="none" stroke-width="1" fill="none" fill-rule="evenodd">
        <rect id="bound" x="0" y="0" width="24" height="24"></rect>
        <path d="M18,15 L18,13.4774152 C18,13.3560358 18.0441534,13.2388009 18.1242243,13.147578 C18.3063883,12.9400428 18.622302,12.9194754 18.8298372,13.1016395 L21.7647988,15.6778026 C21.7814819,15.6924462 21.7971714,15.7081846 21.811763,15.7249133 C21.9932797,15.933015 21.9717282,16.2488631 21.7636265,16.4303797 L18.828665,18.9903994 C18.7375973,19.0698331 18.6208431,19.1135979 18.5,19.1135979 C18.2238576,19.1135979 18,18.8897403 18,18.6135979 L18,17 L16.445419,17 C14.5938764,17 12.8460429,16.1451629 11.7093057,14.6836437 L7.71198984,9.54423755 C6.95416504,8.56989138 5.7889427,8 4.55458097,8 L2,8 L2,6 L4.55458097,6 C6.40612357,6 8.15395708,6.85483706 9.29069428,8.31635632 L13.2880102,13.4557625 C14.045835,14.4301086 15.2110573,15 16.445419,15 L18,15 Z" id="Combined-Shape" fill="#335EEA" opacity="0.3"></path>
        <path d="M18,6 L18,4.4774157 C18,4.3560363 18.0441534,4.23880134 18.1242243,4.14757848 C18.3063883,3.94004327 18.622302,3.9194759 18.8298372,4.10163997 L21.7647988,6.67780304 C21.7814819,6.69244668 21.7971714,6.70818509 21.811763,6.72491379 C21.9932797,6.93301548 21.9717282,7.24886356 21.7636265,7.43038021 L18.828665,9.99039986 C18.7375973,10.0698336 18.6208431,10.1135984 18.5,10.1135984 C18.2238576,10.1135984 18,9.88974079 18,9.61359842 L18,8 L16.445419,8 C15.2110573,8 14.045835,8.56989138 13.2880102,9.54423755 L9.29069428,14.6836437 C8.15395708,16.1451629 6.40612357,17 4.55458097,17 L2,17 L2,15 L4.55458097,15 C5.7889427,15 6.95416504,14.4301086 7.71198984,13.4557625 L11.7093057,8.31635632 C12.8460429,6.85483706 14.5938764,6 16.445419,6 L18,6 Z" id="Combined-Shape" fill="#335EEA"></path>
    </g>
</svg>

<svg width="24" height="24" viewBox="0 0 24 24" xmlns="http://www.w3.org/2000/svg"><g fill="none" fill-rule="evenodd"><path d="M0 0h24v24H0z"/><path d="M18 15v-1.523a.5.5 0 01.83-.375l2.935 2.576a.5.5 0 01-.001.752l-2.935 2.56a.5.5 0 01-.829-.376V17h-1.555a6 6 0 01-4.736-2.316l-3.997-5.14A4 4 0 004.555 8H2V6h2.555A6 6 0 019.29 8.316l3.997 5.14A4 4 0 0016.445 15H18z" fill="#335EEA" opacity=".3"/><path d="M18 6V4.477a.5.5 0 01.83-.375l2.935 2.576a.5.5 0 01-.001.752l-2.935 2.56A.5.5 0 0118 9.614V8h-1.555a4 4 0 00-3.157 1.544l-3.997 5.14A6 6 0 014.555 17H2v-2h2.555a4 4 0 003.157-1.544l3.997-5.14A6 6 0 0116.445 6H18z" fill="#335EEA"/></g></svg>
